X: 8
T: The Spanish Armada
%C: Mr. Gray
%R: reel
B: Mr. Gray "24 Country Dances for the Year 1805" p.4 #2
S: http://folkopedia.efdss.org/images/9/92/ThompsGray_24_1805.PDF  2013-12-2
Z: 2013 John Chambers <jc:trillian.mit.edu>
M: C
L: 1/8
K: Eb
|:\
EGBG F/F/F F2 | GBEG (FD)B,2 |\
EGBG Eedc | BAGF (GE)E2 :|
|:\
F3B (GE)E2 | (eBAG) (FD)B,2 |\
F3B GBeG | AFED E2E2 :|
% - - - - - - - - - - - - - - - - - - - - - - - - -
%%begintext align
%% Set & half right & left, D.o back again, down
%% the mid: up again, right & left at top.
%%endtext

%%sep 1 1 500
%%sep 1 1 500
